X: 135
T: The Primrose Lass
T: Reel, G
L: 1/16
M: C|
K: G
g2| e2d2B2A2 GGG2 G2E2| D2E2G2A2 B2A2A2g2| e2d2B2A2 GGG2 G2E2| D2E2G2A2 B2G2G2c2|
B2e2A2B2 GGG2 G2E2| D2E2G2A2 B2A2A2g2| e2d2B2A2 GGG2 G2E2| D2E2G2A2 B2G2G2|| 
c2| B2d2g2d2 e2d2g2d2| B2d2g2d2 e2A2A2c2| B2d2g2d2 e2b2g2e2| d2B2A2c2 B2G2G2c2| 
B2d2g2d2 e2d2g2d2| B2d2g2d2 e2A2A4| d2^c2d2e2 g2b2g2e2| d2B2A2c2 B2G2G2|| 
D: Kinnon and Betty Beaton, Saturday Night Lively, KB20M98
D: Wendy MacIsaac, That's What You Get, WMT004
D: Theresa, Donald and Marie MacLellan, The MacLellan Trio, Breton Books and Music
